X: 6484
T: Cat In The Hopper, The
R: jig
M: 6/8
K: Gminor
D|:GAG B2{d}c/B/|AFF F2A|GAG g2a/g/|fdd d2=e|
fgf fed|cdB ABc|ded d2{e}d/c/|1 BGG G2D:|2 BGG G2d||
|:g3 gab|aff fga|g3 gag|fdd d2=e|
fgf fed|cdB ABc|ded d2{e}d/c/|1 BGG G2d:|2 BGG G2D||

